common/svg/slash-shortcut-icon.svg

<svg fill="none" height="20" viewBox="0 0 20 20" width="20" xmlns="http://www.w3.org/2000/svg"><g stroke="#000"><path d="m16 .5h-12c-1.933 0-3.5 1.567-3.5 3.5v12c0 1.933 1.567 3.5 3.5 3.5h12c1.933 0 3.5-1.567 3.5-3.5v-12c0-1.933-1.567-3.5-3.5-3.5z"/><path d="m6.5 16 7-12"/></g></svg>

<svg width="20" height="20" viewBox="0 0 20 20" fill="none" xmlns="http://www.w3.org/2000/svg">
<path d="M16 0.5H4C2.067 0.5 0.5 2.067 0.5 4V16C0.5 17.933 2.067 19.5 4 19.5H16C17.933 19.5 19.5 17.933 19.5 16V4C19.5 2.067 17.933 0.5 16 0.5Z" stroke="black"/>
<path d="M6.5 16L13.5 4" stroke="black"/>
</svg>
